<?xml version="1.0" encoding="UTF-8"?>
<map version="1.10" tiledversion="1.12.1" orientation="orthogonal" renderorder="right-down" width="30" height="80" tilewidth="18" tileheight="18" infinite="0" nextlayerid="4" nextobjectid="1">
 <tileset firstgid="1" name="tilemap_packed" tilewidth="18" tileheight="18" tilecount="180" columns="20">
  <image source="Seasons/assets/tilemap_packed.png" width="360" height="162"/>
 </tileset>
 <tileset firstgid="181" name="tilemap-backgrounds_packed" tilewidth="18" tileheight="18" tilecount="40" columns="10">
  <image source="Seasons/assets/tilemap-backgrounds_packed.png" width="192" height="72"/>
 </tileset>
 <tileset firstgid="221" name="autumn_tilemap_packed" tilewidth="18" tileheight="18" tilecount="112" columns="16">
  <image source="Seasons/assets/autumn_tilemap_packed.png" width="288" height="126"/>
 </tileset>
 <layer id="2" name="bg" width="30" height="80">
  <data encoding="csv">
187,187,187,187,187,187,187,187,187,187,187,187,187,187,187,187,187,187,187,187,187,187,187,187,187,187,187,187,187,187,
187,187,187,187,187,187,187,187,187,187,187,187,187,187,187,187,187,187,187,187,187,187,187,187,187,187,187,187,187,187,
187,187,187,187,187,187,187,187,187,187,187,187,187,187,187,187,187,187,187,187,187,187,187,187,187,187,187,187,187,187,
187,187,187,187,187,187,187,187,187,187,187,187,187,187,187,187,187,187,187,187,187,187,187,187,187,187,187,187,187,187,
187,187,187,187,187,187,187,187,187,187,187,187,187,187,187,187,187,187,187,187,187,187,187,187,187,187,187,187,187,187,
187,187,187,187,187,187,187,187,187,187,187,187,187,187,187,187,187,187,187,187,187,187,187,187,187,187,187,187,187,187,
187,187,187,187,187,187,187,187,187,187,187,187,187,187,187,187,187,187,187,187,187,187,187,187,187,187,187,187,187,187,
187,187,187,187,187,187,187,187,187,187,187,187,187,187,187,187,187,187,187,187,187,187,187,187,187,187,187,187,187,187,
187,187,187,187,187,187,187,187,187,187,187,187,187,187,187,187,187,187,187,187,187,187,187,187,187,187,187,187,187,187,
187,187,187,187,187,187,187,187,187,187,187,187,187,187,187,187,187,187,187,187,187,187,187,187,187,187,187,187,187,187,
187,187,187,187,187,187,187,187,187,187,187,187,187,187,187,187,187,187,187,187,187,187,187,187,187,187,187,187,187,187,
187,187,187,187,187,187,187,187,187,187,187,187,187,187,187,187,187,187,187,187,187,187,187,187,187,187,187,187,187,187,
187,187,187,187,187,187,187,187,187,187,187,187,187,187,187,187,187,187,187,187,187,187,187,187,187,187,187,187,187,187,
187,187,187,187,187,187,187,187,187,187,187,187,187,187,187,187,187,187,187,187,187,187,187,187,187,187,187,187,187,187,
187,187,187,187,187,187,187,187,187,187,187,187,187,187,187,187,187,187,187,187,187,187,187,187,187,187,187,187,187,187,
187,187,187,187,187,187,187,187,187,187,187,187,187,187,187,187,187,187,187,187,187,187,187,187,187,187,187,187,187,187,
187,187,187,187,187,187,187,187,187,187,187,187,187,187,187,187,187,187,187,187,187,187,187,187,187,187,187,187,187,187,
187,187,187,187,187,187,187,187,217,217,217,217,217,217,217,217,217,217,217,217,217,217,187,187,187,187,187,187,187,187,
187,187,187,187,187,187,187,187,217,217,217,217,217,217,217,217,217,217,217,217,217,217,187,187,187,187,187,187,187,187,
187,187,187,187,187,187,187,187,217,217,217,217,217,217,217,217,217,217,217,217,217,217,187,187,187,187,187,187,187,187,
187,187,187,187,187,187,187,187,217,217,217,217,217,217,217,217,217,217,217,217,217,217,187,187,187,187,187,187,187,187,
187,187,187,187,187,187,187,187,217,217,217,217,217,217,217,217,217,217,217,217,217,217,187,187,187,187,187,187,187,187,
187,187,187,187,187,187,187,187,217,217,217,217,217,217,217,217,217,217,217,217,217,217,187,187,187,187,187,187,187,187,
187,187,187,187,187,187,187,187,217,217,217,217,217,217,217,217,217,217,217,217,217,217,187,187,187,187,187,187,187,187,
187,187,187,187,187,187,187,187,217,217,217,217,217,217,217,217,217,217,217,217,217,217,187,187,187,187,187,187,187,187,
187,187,187,187,187,187,187,187,217,217,217,217,217,217,217,217,217,217,217,217,217,217,187,187,187,187,187,187,187,187,
187,187,187,187,187,187,187,187,217,217,217,217,217,217,217,217,217,217,217,217,217,217,187,187,187,187,187,187,187,187,
187,187,187,187,187,187,187,187,217,217,217,217,217,217,217,217,217,217,217,217,217,217,187,187,187,187,187,187,187,187,
187,187,187,187,187,187,187,187,217,217,217,217,217,217,217,217,217,217,217,217,217,217,187,187,187,187,187,187,187,187,
187,187,187,187,187,187,187,187,217,217,217,217,217,217,217,217,217,217,217,217,217,217,187,187,187,187,187,187,187,187,
187,187,187,187,187,187,187,187,217,217,217,217,217,217,217,217,217,217,217,217,217,217,187,187,187,187,187,187,187,187,
187,187,187,187,187,187,187,187,217,217,217,217,217,217,217,217,217,217,217,217,217,217,187,187,187,187,187,187,187,187,
187,187,187,187,187,187,187,187,217,217,217,217,217,217,217,217,217,217,217,217,217,217,187,187,187,187,187,187,187,187,
187,187,187,187,187,187,187,187,217,217,217,217,217,217,217,217,217,217,217,217,217,217,187,187,187,187,187,187,187,187,
187,187,187,187,187,187,187,187,217,217,217,217,217,217,217,217,217,217,217,217,217,217,187,187,187,187,187,187,187,187,
187,187,187,187,187,187,187,187,217,217,217,217,217,217,217,217,217,217,217,217,217,217,187,187,187,187,187,187,187,187,
187,187,187,187,187,187,187,187,217,217,217,217,217,217,217,217,217,217,217,217,217,217,187,187,187,187,187,187,187,187,
187,187,187,187,187,187,187,187,217,217,217,217,217,217,217,217,217,217,217,217,217,217,187,187,187,187,187,187,187,187,
187,187,187,187,187,187,187,187,217,217,217,217,217,217,217,217,217,217,217,217,217,217,187,187,187,187,187,187,187,187,
187,187,187,187,187,187,187,187,217,217,217,217,217,217,217,217,217,217,217,217,217,217,187,187,187,187,187,187,187,187,
187,187,187,187,187,187,187,187,217,217,217,217,217,217,217,217,217,217,217,217,217,217,187,187,187,187,187,187,187,187,
187,187,187,187,187,187,187,187,217,217,217,217,217,217,217,217,217,217,217,217,217,217,187,187,187,187,187,187,187,187,
187,187,187,187,187,187,187,187,217,217,217,217,217,217,217,217,217,217,217,217,217,217,187,187,187,187,187,187,187,187,
187,187,187,187,187,187,187,187,217,217,217,217,217,217,217,217,217,217,217,217,217,217,187,187,187,187,187,187,187,187,
187,187,187,187,187,187,187,187,217,217,217,217,217,217,217,217,217,217,217,217,217,217,187,187,187,187,187,187,187,187,
187,187,187,187,187,187,187,187,217,217,217,217,217,217,217,217,217,217,217,217,217,217,187,187,187,187,187,187,187,187,
187,187,187,187,187,187,187,187,217,217,217,217,217,217,217,217,217,217,217,217,217,217,187,187,187,187,187,187,187,187,
187,187,187,187,187,187,187,187,217,217,217,217,217,217,217,217,217,217,217,217,217,217,187,187,187,187,187,187,187,187,
187,187,187,187,187,187,187,187,217,217,217,217,217,217,217,217,217,217,217,217,217,217,187,187,187,187,187,187,187,187,
187,187,187,187,187,187,187,187,217,217,217,217,217,217,217,217,217,217,217,217,217,217,187,187,187,187,187,187,187,187,
187,187,187,187,187,187,187,187,217,217,217,217,217,217,217,217,217,217,217,217,217,217,187,187,187,187,187,187,187,187,
187,187,187,187,187,187,187,187,217,217,217,217,217,217,217,217,217,217,217,217,217,217,187,187,187,187,187,187,187,187,
187,187,187,187,187,187,187,187,217,217,217,217,217,217,217,217,217,217,217,217,217,217,187,187,187,187,187,187,187,187,
187,187,187,187,187,187,187,187,217,217,217,217,217,217,217,217,217,217,217,217,217,217,187,187,187,187,187,187,187,187,
187,187,187,187,187,187,187,187,217,217,217,217,217,217,217,217,217,217,217,217,217,217,187,187,187,187,187,187,187,187,
187,187,187,187,187,187,187,187,217,217,217,217,217,217,217,217,217,217,217,217,217,217,187,187,187,187,187,187,187,187,
187,187,187,187,187,187,187,187,217,217,217,217,217,217,217,217,217,217,217,217,217,217,187,187,187,187,187,187,187,187,
187,187,187,187,187,187,187,187,217,217,217,217,217,217,217,217,217,217,217,217,217,217,187,187,187,187,187,187,187,187,
187,187,187,187,187,187,187,187,217,217,217,217,217,217,217,217,217,217,217,217,217,217,187,187,187,187,187,187,187,187,
187,187,187,187,187,187,187,187,217,217,217,217,217,217,217,217,217,217,217,217,217,217,187,187,187,187,187,187,187,187,
187,187,187,187,187,187,187,187,217,217,217,217,217,217,217,217,217,217,217,217,217,217,187,187,187,187,187,187,187,187,
187,187,187,187,187,187,187,187,217,217,217,217,217,217,217,217,217,217,217,217,217,217,187,187,187,187,187,187,187,187,
187,187,187,187,187,187,187,187,217,217,217,217,217,217,217,217,217,217,217,217,217,217,187,187,187,187,187,187,187,187,
187,187,187,187,187,187,187,187,217,217,217,217,217,217,217,217,217,217,217,217,217,217,187,187,187,187,187,187,187,187,
187,187,187,187,187,187,187,187,217,217,217,217,217,217,217,217,217,217,217,217,217,217,187,187,187,187,187,187,187,187,
187,187,187,187,187,187,187,187,217,217,217,217,217,217,217,217,217,217,217,217,217,217,187,187,187,187,187,187,187,187,
187,187,187,187,187,187,187,187,217,217,217,217,217,217,217,217,217,217,217,217,217,217,187,187,187,187,187,187,187,187,
187,187,187,187,187,187,187,187,217,217,217,217,217,217,217,217,217,217,217,217,217,217,187,187,187,187,187,187,187,187,
187,187,187,187,187,187,187,187,217,217,217,217,217,217,217,217,217,217,217,217,217,217,187,187,187,187,187,187,187,187,
187,187,187,187,187,187,187,187,217,217,217,217,217,217,217,217,217,217,217,217,217,217,187,187,187,187,187,187,187,187,
187,187,187,187,187,187,187,187,217,217,217,217,217,217,217,217,217,217,217,217,217,217,187,187,187,187,187,187,187,187,
187,187,187,187,187,187,187,187,217,217,217,217,217,217,217,217,217,217,217,217,217,217,187,187,187,187,187,187,187,187,
187,187,187,187,187,187,187,187,217,217,217,217,217,217,217,217,217,217,217,217,217,217,187,187,187,187,187,187,187,187,
187,187,187,187,187,187,187,187,217,217,217,217,217,217,217,217,217,217,217,217,217,217,187,187,187,187,187,187,187,187,
187,187,187,187,187,187,187,187,217,217,217,217,217,217,217,217,217,217,217,217,217,217,187,187,187,187,187,187,187,187,
187,187,187,187,187,187,187,187,217,217,217,217,217,217,217,217,217,217,217,217,217,217,187,187,187,187,187,187,187,187,
187,187,187,187,187,187,187,187,187,187,187,187,187,187,187,187,187,187,187,187,187,187,187,187,187,187,187,187,187,187,
187,187,187,187,187,187,187,187,187,187,187,187,187,187,187,187,187,187,187,187,187,187,187,187,187,187,187,187,187,187,
187,187,187,187,187,187,187,187,187,187,187,187,187,187,187,187,187,187,187,187,187,187,187,187,187,187,187,187,187,187,
187,187,187,187,187,187,187,187,187,187,187,187,187,187,187,187,187,187,187,187,187,187,187,187,187,187,187,187,187,187
</data>
 </layer>
 <layer id="1" name="Ground-n-Platforms" width="30" height="80">
  <data encoding="csv">
0,0,0,0,0,0,0,0,0,0,0,0,0,0,0,0,0,0,0,0,0,0,0,0,0,0,0,0,0,0,
0,0,0,0,0,0,0,0,0,0,0,0,0,0,0,0,0,0,0,0,0,0,0,0,0,0,0,0,0,0,
0,0,0,0,0,0,0,0,0,0,0,0,0,0,0,0,0,0,0,0,0,0,0,0,0,0,0,0,0,0,
0,0,0,0,0,0,0,0,0,0,0,0,0,0,0,0,0,0,0,0,0,0,0,0,0,0,0,0,0,0,
0,0,0,0,0,0,0,0,0,0,0,0,0,0,0,0,0,0,0,0,0,0,0,0,0,0,0,0,0,0,
0,0,0,0,0,0,0,0,0,0,0,0,0,0,0,0,0,0,0,0,0,0,0,0,0,0,0,0,0,0,
0,0,0,0,0,0,0,0,0,0,0,0,0,0,0,0,0,0,0,0,0,0,0,0,0,0,0,0,0,0,
0,0,0,0,0,0,0,0,0,0,0,0,0,0,0,0,0,0,0,0,0,0,0,0,0,0,0,0,0,0,
0,0,0,0,0,0,0,0,0,0,0,0,0,0,0,0,0,0,0,0,0,0,0,0,0,0,0,0,0,0,
0,0,0,0,0,0,0,0,0,0,0,0,0,0,0,0,0,0,0,0,0,0,0,0,0,0,0,0,0,0,
0,0,0,0,0,0,0,0,0,0,0,0,0,0,0,0,0,0,0,0,0,0,0,0,0,0,0,0,0,0,
0,0,0,0,0,0,0,0,0,0,0,0,0,0,0,0,0,0,0,0,0,0,0,0,0,0,0,0,0,0,
0,0,0,0,0,0,0,0,0,0,0,0,0,0,0,0,0,0,0,0,0,0,0,0,0,0,0,0,0,0,
0,0,0,0,0,0,0,0,0,0,0,0,0,0,0,0,0,0,0,0,0,0,0,0,0,0,0,0,0,0,
0,0,0,0,0,0,0,0,0,0,0,0,0,0,0,0,0,0,0,0,0,0,0,0,0,0,0,0,0,0,
0,0,0,0,0,0,0,0,0,0,0,0,0,0,0,0,0,0,0,0,0,0,0,0,0,0,0,0,0,0,
43,282,283,284,0,0,0,0,0,0,0,0,0,0,0,0,0,0,0,0,0,0,0,0,0,0,0,0,0,0,
43,43,283,284,0,0,254,256,0,0,0,0,0,0,0,0,0,0,0,0,0,0,254,256,0,0,0,0,0,0,
0,43,43,282,283,284,254,256,0,0,0,0,0,0,0,0,0,0,0,0,0,0,254,256,0,0,0,0,0,0,
0,0,43,43,282,284,254,256,0,0,0,0,0,0,0,0,0,0,0,0,0,0,254,256,0,0,0,0,0,0,
0,0,0,43,43,284,254,256,0,0,0,0,0,0,0,0,0,0,0,0,0,0,254,256,0,0,0,0,0,0,
0,0,0,0,43,43,254,256,0,0,0,0,0,0,0,0,0,0,0,0,0,0,254,256,0,0,0,0,0,0,
0,0,0,0,0,43,254,256,0,0,0,0,0,0,0,0,0,0,0,0,0,0,254,256,0,0,0,0,0,0,
0,0,0,0,0,0,254,256,0,0,0,0,0,0,0,0,0,0,0,0,0,0,254,256,0,0,0,0,0,0,
0,0,0,0,0,0,254,256,0,0,0,0,0,0,0,0,0,0,0,0,0,0,254,256,0,0,0,0,0,0,
0,0,0,0,0,0,254,256,0,0,0,0,0,0,0,0,0,0,0,0,0,0,254,256,0,0,0,0,0,0,
0,0,0,0,0,0,254,256,0,0,0,0,0,0,0,0,0,0,0,0,0,0,254,256,0,0,0,0,0,0,
0,0,0,0,0,0,254,256,0,0,0,0,0,0,0,0,0,0,0,0,0,0,254,256,0,0,0,0,0,0,
0,0,0,0,0,0,254,256,0,0,0,0,0,0,0,0,0,0,0,0,0,0,254,256,0,0,0,0,0,0,
0,0,0,0,0,0,254,256,0,0,0,0,0,0,0,0,0,0,0,0,0,0,254,256,0,0,0,0,0,0,
0,0,0,0,0,0,254,256,0,0,0,0,0,0,0,0,0,0,0,0,0,0,254,256,0,0,0,0,0,0,
0,0,0,0,0,0,254,256,0,0,0,0,0,0,0,0,0,0,0,0,0,0,254,256,0,0,0,0,0,0,
0,0,0,0,0,0,254,256,0,0,0,0,0,0,0,0,0,0,0,0,0,0,254,256,0,0,0,0,0,0,
0,0,0,0,0,0,254,256,0,0,0,0,0,0,0,0,0,0,0,0,0,0,254,256,0,0,0,0,0,0,
0,0,0,282,283,284,254,256,0,0,0,0,0,0,0,0,0,0,0,0,0,0,254,256,0,0,0,0,0,0,
282,283,284,43,43,43,254,256,0,0,0,0,0,0,0,0,0,0,0,0,0,0,254,256,0,0,0,0,0,0,
282,43,43,43,0,0,254,256,0,0,0,0,0,0,0,0,0,0,0,0,0,0,254,256,0,0,0,0,0,0,
43,43,0,0,0,0,254,256,0,0,0,0,0,0,0,0,0,0,0,0,0,0,254,256,0,0,0,0,0,0,
0,0,0,0,0,0,254,256,0,0,0,0,0,0,0,0,0,0,0,0,0,0,254,256,0,0,0,0,0,282,
0,0,0,0,0,0,254,256,0,0,0,0,0,0,0,0,0,0,0,0,0,0,254,256,0,0,282,283,284,43,
282,283,284,0,0,0,254,256,0,0,0,0,0,0,0,0,0,0,0,0,0,0,254,256,0,0,282,43,43,43,
43,43,282,283,284,0,254,256,0,0,0,0,0,0,0,0,0,0,0,0,0,0,254,256,282,283,284,43,0,0,
0,43,43,282,283,284,254,256,0,0,0,0,0,0,0,0,0,0,0,0,0,0,254,256,43,233,43,43,0,0,
0,0,43,43,283,284,254,256,0,0,0,0,0,0,0,0,0,0,0,0,0,0,254,256,43,43,43,282,283,284,
0,0,0,43,43,284,254,256,0,0,0,0,0,0,0,0,0,0,0,0,0,0,254,256,0,0,43,43,43,43,
0,0,0,0,43,43,254,256,0,0,0,0,0,0,0,0,0,0,0,0,0,0,254,256,0,0,0,0,0,0,
0,0,0,0,0,43,254,256,0,0,0,0,0,0,0,0,0,0,0,0,0,0,254,256,0,0,0,0,0,0,
0,0,0,0,0,0,254,256,0,0,0,0,0,0,0,0,0,0,0,0,0,0,254,256,0,0,0,0,0,0,
0,0,0,0,0,0,254,256,0,0,0,0,0,0,0,0,0,0,0,0,0,0,254,256,0,0,0,0,0,0,
0,0,0,0,0,0,254,256,0,0,0,0,0,0,0,0,0,0,0,0,0,0,254,256,0,0,0,0,0,0,
0,0,0,0,0,0,254,256,0,0,0,0,0,0,0,0,0,0,0,0,0,0,254,256,0,0,0,0,0,0,
0,0,0,0,0,0,254,256,0,0,0,0,0,0,0,0,0,0,0,0,0,0,254,256,0,0,0,0,0,0,
0,0,0,0,0,0,254,256,0,0,0,0,0,0,0,0,0,0,0,0,0,0,254,256,0,0,0,0,0,0,
0,0,0,0,0,0,254,256,0,0,0,0,0,0,0,0,0,0,0,0,0,0,254,256,0,0,0,0,0,0,
0,0,0,0,0,0,254,256,0,0,0,0,0,0,0,0,0,0,0,0,0,0,254,256,0,0,0,0,0,0,
0,0,0,0,0,0,122,124,0,0,0,0,0,0,0,0,0,0,0,0,0,0,122,124,0,0,0,0,0,0,
282,283,284,0,0,0,122,124,0,0,234,235,236,0,0,0,0,0,0,0,0,0,122,124,0,0,0,0,0,0,
43,43,282,283,284,0,122,124,0,0,266,298,268,0,0,0,0,0,0,0,0,0,122,124,0,0,0,0,0,0,
0,43,43,43,283,284,122,124,0,0,0,314,0,0,0,0,0,0,0,0,0,0,122,124,0,0,0,0,0,0,
0,0,0,43,43,43,122,124,0,0,0,330,0,0,0,0,0,0,0,0,0,0,122,124,0,0,0,0,0,0,
0,0,0,0,0,43,122,124,239,239,239,239,239,239,239,239,0,0,0,234,235,236,122,124,282,283,284,0,0,0,
284,0,0,0,0,0,122,124,0,0,0,0,0,0,0,249,0,0,0,250,251,252,122,124,43,282,283,284,0,0,
43,284,0,0,0,0,122,124,0,0,0,0,0,0,0,265,0,0,0,266,267,268,122,124,43,43,283,283,283,284,
43,282,283,284,0,0,122,124,0,0,0,0,0,0,0,265,0,0,0,249,0,0,122,124,0,0,43,43,283,283,
0,43,283,283,283,284,122,124,0,0,0,0,0,0,0,265,0,0,0,265,0,0,122,124,0,0,0,43,43,43,
0,0,43,43,43,43,122,124,0,0,0,0,0,0,0,265,0,0,0,281,0,0,122,124,0,0,0,0,0,0,
0,0,0,0,0,0,122,124,0,0,0,0,0,0,0,265,0,0,0,0,0,0,122,124,0,0,0,0,0,0,
0,0,0,0,0,0,122,124,0,0,0,0,0,0,0,265,0,0,0,0,0,0,122,124,0,0,0,0,0,0,
0,0,0,0,0,0,122,124,0,0,0,0,0,0,0,265,0,0,0,0,0,0,122,124,0,0,0,0,0,0,
0,0,0,0,0,0,122,124,0,0,0,0,0,0,0,281,0,0,0,0,0,0,122,124,0,0,0,0,0,0,
0,0,0,0,0,0,122,124,0,0,0,0,0,0,0,0,0,0,0,0,0,0,122,124,282,283,284,0,0,0,
0,0,0,0,0,0,122,124,0,0,0,0,0,0,0,0,0,0,0,0,0,0,122,124,43,43,43,282,283,284,
0,0,0,0,0,0,270,272,0,0,0,0,0,0,0,0,0,0,282,283,284,0,122,124,0,0,43,43,43,43,
0,0,0,0,0,0,0,0,0,0,0,0,0,0,0,0,0,0,0,0,0,0,122,124,0,0,0,0,0,0,
0,0,0,0,0,0,0,0,0,0,0,0,0,0,0,0,0,0,0,0,0,0,122,124,0,0,0,0,0,0,
0,0,0,0,0,0,0,0,0,0,0,0,0,0,282,283,284,0,0,0,0,0,122,124,0,0,0,0,0,0,
238,239,239,239,239,239,239,239,239,239,239,239,239,239,239,239,239,239,239,239,239,239,239,239,239,239,239,239,239,240,
122,123,123,123,123,123,123,123,123,123,123,123,123,123,123,123,123,123,123,123,123,123,123,123,123,123,123,123,123,124,
122,123,123,123,123,123,123,123,123,123,123,123,123,123,123,123,123,123,123,123,123,123,123,123,123,123,123,123,123,124,
270,271,271,271,271,271,271,271,271,271,271,271,271,271,271,271,271,271,271,271,271,271,271,271,271,271,271,271,271,272
</data>
 </layer>
 <layer id="3" name="transition" width="30" height="80">
  <data encoding="csv">
0,0,0,0,0,0,0,0,0,0,0,0,0,0,0,0,0,0,0,0,0,0,0,0,0,0,0,0,0,0,
0,0,0,0,0,0,0,0,0,0,0,0,0,0,0,0,0,0,0,0,0,0,0,0,0,0,0,0,0,0,
0,0,0,0,0,0,0,0,0,0,0,0,0,0,0,0,0,0,0,0,0,0,0,0,0,0,0,0,0,0,
0,0,0,0,0,0,0,0,0,0,0,0,0,0,0,0,0,0,0,0,0,0,0,0,0,0,0,0,0,0,
0,0,0,0,0,0,0,0,0,0,0,0,0,0,0,0,0,0,0,0,0,0,0,0,0,0,0,0,0,0,
0,0,0,0,0,0,0,0,0,0,0,0,0,0,0,0,0,0,0,0,0,0,0,0,0,0,0,0,0,0,
0,0,0,0,0,0,0,0,0,0,0,0,0,0,0,0,0,0,0,0,0,0,0,0,0,0,0,0,0,0,
0,0,0,0,0,0,0,0,0,0,0,0,0,0,0,0,0,0,0,0,0,0,0,0,0,0,0,0,0,0,
0,0,0,0,0,0,0,0,0,0,0,0,0,0,0,0,0,0,0,0,0,0,0,0,0,0,0,0,0,0,
0,0,0,0,0,0,0,0,0,0,0,0,0,0,0,0,0,0,0,0,0,0,0,0,0,0,0,0,0,0,
0,0,0,0,0,0,0,0,0,0,0,0,0,0,0,0,0,0,0,0,0,0,0,0,0,0,0,0,0,0,
0,0,0,0,0,0,0,0,0,0,0,0,0,0,0,0,0,0,0,0,0,0,0,0,0,0,0,0,0,0,
0,0,0,0,0,0,0,0,0,0,0,0,0,0,0,0,0,0,0,0,0,0,0,0,0,0,0,0,0,0,
0,0,0,0,0,0,0,0,0,0,0,0,0,0,0,0,0,0,0,0,0,0,0,0,0,0,0,0,0,0,
0,0,0,0,0,0,0,0,0,0,0,0,0,0,0,0,0,0,0,0,0,0,0,0,0,0,0,0,0,0,
0,0,0,0,0,0,0,0,0,0,0,0,0,0,0,0,0,0,0,0,0,0,0,0,0,0,0,0,0,0,
0,0,0,0,0,0,0,0,0,0,0,0,0,0,0,0,0,0,0,0,0,0,0,0,0,0,0,0,0,0,
0,0,0,0,0,0,0,0,0,0,0,0,0,0,0,0,0,0,0,0,0,0,0,0,0,0,0,0,0,0,
0,0,0,0,0,0,0,0,0,0,0,0,0,0,0,0,0,0,0,0,0,0,0,0,0,0,0,0,0,0,
0,0,0,0,0,0,0,0,0,0,0,0,0,0,0,0,0,0,0,0,0,0,0,0,0,0,0,0,0,0,
0,0,0,0,0,0,0,0,0,0,0,0,0,0,0,0,0,0,0,0,0,0,0,0,0,0,0,0,0,0,
0,0,0,0,0,0,0,0,0,0,0,0,0,0,0,0,0,0,0,0,0,0,0,0,0,0,0,0,0,0,
0,0,0,0,0,0,0,0,0,0,0,0,0,0,0,0,0,0,0,0,0,0,0,0,0,0,0,0,0,0,
0,0,0,0,0,0,0,0,0,0,0,0,0,0,0,0,0,0,0,0,0,0,0,0,0,0,0,0,0,0,
0,0,0,0,0,0,0,0,0,0,0,0,0,0,0,0,0,0,0,0,0,0,0,0,0,0,0,0,0,0,
0,0,0,0,0,0,0,0,0,0,0,0,0,0,0,0,0,0,0,0,0,0,0,0,0,0,0,0,0,0,
0,0,0,0,0,0,0,0,0,0,0,0,0,0,0,0,0,0,0,0,0,0,0,0,0,0,0,0,0,0,
0,0,0,0,0,0,0,0,0,0,0,0,0,0,0,0,0,0,0,0,0,0,0,0,0,0,0,0,0,0,
0,0,0,0,0,0,0,0,0,0,0,0,0,0,0,0,0,0,0,0,0,0,0,0,0,0,0,0,0,0,
0,0,0,0,0,0,0,0,0,0,0,0,0,0,0,0,0,0,0,0,0,0,0,0,0,0,0,0,0,0,
0,0,0,0,0,0,0,0,0,0,0,0,0,0,0,0,0,0,0,0,0,0,0,0,0,0,0,0,0,0,
0,0,0,0,0,0,0,0,0,0,0,0,0,0,0,0,0,0,0,0,0,0,0,0,0,0,0,0,0,0,
0,0,0,0,0,0,0,0,0,0,0,0,0,0,0,0,0,0,0,0,0,0,0,0,0,0,0,0,0,0,
0,0,0,0,0,0,0,0,0,0,0,0,0,0,0,0,0,0,0,0,0,0,0,0,0,0,0,0,0,0,
0,0,0,0,0,0,0,0,0,0,0,0,0,0,0,0,0,0,0,0,0,0,0,0,0,0,0,0,0,0,
0,0,0,0,0,0,0,0,0,0,0,0,0,0,0,0,0,0,0,0,0,0,0,0,0,0,0,0,0,0,
0,0,0,0,0,0,0,0,0,0,0,0,0,0,0,0,0,0,0,0,0,0,0,0,0,0,0,0,0,0,
0,0,0,0,0,0,0,0,0,0,0,0,0,0,0,0,0,0,0,0,0,0,0,0,0,0,0,0,0,0,
0,0,0,0,0,0,0,0,0,0,0,0,0,0,0,0,0,0,0,0,0,0,0,0,0,0,0,0,0,0,
0,0,0,0,0,0,0,0,0,0,0,0,0,0,0,0,0,0,0,0,0,0,0,0,0,0,0,0,0,0,
0,0,0,0,0,0,0,0,0,0,0,0,0,0,0,0,0,0,0,0,0,0,0,0,0,0,0,0,0,0,
0,0,0,0,0,0,0,0,0,0,0,0,0,0,0,0,0,0,0,0,0,0,0,0,0,0,0,0,0,0,
0,0,0,0,0,0,0,0,0,0,0,0,0,0,0,0,0,0,0,0,0,0,0,0,0,0,0,0,0,0,
0,0,0,0,0,0,0,0,0,0,0,0,0,0,0,0,0,0,0,0,0,0,0,0,0,0,0,0,0,0,
0,0,0,0,0,0,0,0,0,0,0,0,0,0,0,0,0,0,0,0,0,0,0,0,0,0,0,0,0,0,
0,0,0,0,0,0,0,0,0,0,0,0,0,0,0,0,0,0,0,0,0,0,0,0,0,0,0,0,0,0,
0,0,0,0,0,0,0,0,0,0,0,0,0,0,0,0,0,0,0,0,0,0,0,0,0,0,0,0,0,0,
0,0,0,0,0,0,0,0,0,0,0,0,0,0,0,0,0,0,0,0,0,0,0,0,0,0,0,0,0,0,
0,0,0,0,0,0,0,0,0,0,0,0,0,0,0,0,0,0,0,0,0,0,0,0,0,0,0,0,0,0,
0,0,0,0,0,0,0,0,0,0,0,0,0,0,0,0,0,0,0,0,0,0,0,0,0,0,0,0,0,0,
0,0,0,0,0,0,0,0,0,0,0,0,0,0,0,0,0,0,0,0,0,0,0,0,0,0,0,0,0,0,
0,0,0,0,0,0,0,0,0,0,0,0,0,0,0,0,0,0,0,0,0,0,0,0,0,0,0,0,0,0,
0,0,0,0,0,0,0,0,0,0,0,0,0,0,0,0,0,0,0,0,0,0,0,0,0,0,0,0,0,0,
0,0,0,0,0,0,0,0,0,0,0,0,0,0,0,0,0,0,0,0,0,0,0,0,0,0,0,0,0,0,
0,0,0,0,0,0,0,0,0,0,0,0,0,0,0,0,0,0,0,0,0,0,0,0,0,0,0,0,0,0,
0,0,0,0,0,0,0,0,0,0,0,0,0,0,0,0,0,0,0,0,0,0,0,0,0,0,0,0,0,0,
0,0,0,0,0,0,0,0,0,0,0,0,0,0,0,0,0,0,0,0,0,0,0,0,0,0,0,0,0,0,
0,0,0,0,0,0,0,0,0,0,0,0,0,0,0,0,0,0,0,0,0,0,0,0,0,0,0,0,0,0,
0,0,0,0,0,0,0,0,0,0,0,0,0,0,0,0,0,0,0,0,0,0,0,0,0,0,0,0,0,0,
0,0,0,0,0,0,0,0,0,0,0,0,0,0,0,0,0,0,0,0,0,0,0,0,0,0,0,0,0,0,
0,0,0,0,0,0,0,0,0,0,0,0,0,0,0,0,0,0,0,0,0,0,0,0,0,0,0,0,0,0,
0,0,0,0,0,0,0,0,0,0,0,0,0,0,0,0,0,0,0,0,0,0,0,0,0,0,0,0,0,0,
0,0,0,0,0,0,0,0,0,0,0,0,0,0,0,0,0,0,0,0,0,0,0,0,0,0,0,0,0,0,
0,0,0,0,0,0,0,0,0,0,0,0,0,0,0,0,0,0,0,0,0,0,0,0,0,0,0,0,0,0,
0,0,0,0,0,0,0,0,0,0,0,0,0,0,0,0,0,0,0,0,0,0,0,0,0,0,0,0,0,0,
0,0,0,0,0,0,0,0,0,0,0,0,0,0,0,0,0,0,0,0,0,0,0,0,0,0,0,0,0,0,
0,0,0,0,0,0,0,0,0,0,0,0,0,0,0,0,0,0,0,0,0,0,0,0,0,0,0,0,0,0,
0,0,0,0,0,0,0,0,0,0,0,0,0,0,0,0,0,0,0,0,0,0,0,0,0,0,0,0,0,0,
0,0,0,0,0,0,0,0,0,0,0,0,0,0,0,0,0,0,0,0,0,0,0,0,0,0,0,0,0,0,
0,0,0,0,0,0,0,0,0,0,0,0,0,0,0,0,0,0,0,0,0,0,0,0,0,0,0,0,0,0,
0,0,0,0,0,0,0,0,0,0,0,0,0,0,0,0,0,0,0,0,0,0,0,0,0,0,0,0,0,0,
0,0,0,0,0,0,0,0,0,0,0,0,0,0,0,0,0,0,0,0,0,0,0,0,0,0,0,0,0,0,
0,0,0,0,0,0,0,0,0,0,0,0,0,0,0,0,0,0,0,0,0,0,0,0,0,0,0,0,0,0,
0,0,0,0,0,0,0,0,0,0,0,0,0,0,0,0,0,0,0,0,0,0,0,0,0,0,0,0,0,0,
0,0,0,0,0,0,0,0,0,0,0,0,0,0,0,0,0,0,0,0,0,0,0,0,0,0,0,0,0,0,
327,260,261,262,327,225,326,327,0,0,0,0,0,0,0,0,0,0,0,0,0,0,0,0,276,279,277,327,276,327,
0,0,0,0,0,0,0,0,0,0,0,0,0,0,0,0,0,0,0,0,0,0,0,0,0,0,0,0,0,0,
0,0,0,0,0,0,0,0,0,0,0,0,0,0,0,0,0,0,0,0,0,0,0,0,0,0,0,0,0,0,
0,0,0,0,0,0,0,0,0,0,0,0,0,0,0,0,0,0,0,0,0,0,0,0,0,0,0,0,0,0,
0,0,0,0,0,0,0,0,0,0,0,0,0,0,0,0,0,0,0,0,0,0,0,0,0,0,0,0,0,0
</data>
 </layer>
</map>
